X:351
%%etbk:tnset id:163,pos:2,rep:3x,ant:
%%etbk:pldat 2016-08-03T16:36,2014-09-24T16:56,2014-05-11T12:05,2014-05-09T19:20,2014-03-20T18:03,2014-03-13T18:43,2014-03-02T16:54,2014-03-01T16:11,2014-02-15T15:42,2014-02-12T18:31,2014-02-11T17:55,2014-02-09T10:55,2014-02-06T17:58,2013-11-27T18:06,2013-09-29T16:23,2013-05-22T17:08,2013-05-18T14:06,2013-05-14T18:31,2013-05-01T17:02,2013-04-30T15:32
T:Christy Barry's No. 1
H: Created 2013-02-19 /  Modified 2013-03-24
C:Christy Barry
M:6/8
L:1/8
R:jig
K:Gmaj
|: "G"!2!G2G !4!BAG | "D"!1!A2!2!B !3!d2!4!e | "G"!5!g!4!ed !2!B!1!GG | "D"!3!A2A !4!B!2!G!1!E |
"G"!2!GGG !4!BAG | "D"!1!A2!2!B !3!d2!4!e | "G"!5!g!4!ed !2!B!1!GG |1 "D"!2!A!1!G!2!F "G"!3!G2!1!D:|2 "D"!2!A!1!G!2!F "G"!1!G!2!B!3!d||
"G"!5!g2!3!g !3!gfg | !4!a2g !1!d2!2!e | !4!g!2!e!1!d !3!B!1!GG | "D"!3!A2A !4!B!2!G!1!E|
|1 "G"!5!g2!3!g !3!gfg | !4!abg !1!d2!2!e | !4!g!2!e!1!d !3!B!1!GG | "D"!2!A!1!G!2!F "G"!1!G!2!B!3!d:|
|2 "G"!1!D!1!E!2!G !4!BAG | "D"!1!A2!2!B !3!d2!4!e | "G"!5!g!4!ed !2!B!1!GG | "D"!2!A!1!G!2!F "G"!3!G2!1!D||


